; generated by PrusaSlicer 2.1.0+win64 on 2020-07-16 at 17:33:59 UTC

; 

; external perimeters extrusion width = 0.45mm
; perimeters extrusion width = 0.45mm
; infill extrusion width = 0.45mm
; solid infill extrusion width = 0.45mm
; top infill extrusion width = 0.40mm
; support material extrusion width = 0.35mm
; first layer extrusion width = 0.42mm

M73 P0 R266
M73 Q0 S268
M201 X1000 Y1000 Z1000 E5000 ; sets maximum accelerations, mm/sec^2
M203 X200 Y200 Z12 E120 ; sets maximum feedrates, mm/sec
M204 P1250 R1250 T1250 ; sets acceleration (P, T) and retract acceleration (R), mm/sec^2
M205 X8.00 Y8.00 Z0.40 E1.50 ; sets the jerk limits, mm/sec
M205 S0 T0 ; sets the minimum extruding and travel feed rate, mm/sec
M107
M862.3 P "MK3S" ; printer model check
M862.1 P0.4 ; nozzle diameter check
M115 U3.8.1 ; tell printer latest fw version
G90 ; use absolute coordinates
M83 ; extruder relative mode
M104 S215 ; set extruder temp
M140 S60 ; set bed temp
M190 S60 ; wait for bed temp
M109 S215 ; wait for extruder temp
G28 W ; home all without mesh bed level
G80 ; mesh bed leveling
G1 Y-3.0 F1000.0 ; go outside print area
G92 E0.0
G1 X60.0 E9.0 F1000.0 ; intro line
M73 Q0 S268
M73 P0 R266
G1 X100.0 E12.5 F1000.0 ; intro line
G92 E0.0
M221 S95
G21 ; set units to millimeters
G90 ; use absolute coordinates
M83 ; use relative distances for extrusion
M900 K30 ; Filament gcode
;BEFORE_LAYER_CHANGE
G92 E0.0
;0.2


G1 E-0.80000 F2100.00000
G1 Z0.600 F10800.000
;AFTER_LAYER_CHANGE
;0.2
G1 X110.292 Y150.825
G1 Z0.200
G1 E0.80000 F2100.00000
M204 S1000
G1 F1200
G1 X109.774 Y150.346 E0.02213
G1 X109.436 Y149.726 E0.02213
G1 X109.312 Y149.031 E0.02213
G1 X109.312 Y70.985 E2.44708
G1 X109.435 Y69.270 E0.05391
G1 X109.790 Y67.620 E0.05292
G1 X110.106 Y66.674 E0.03129
G1 X110.803 Y65.157 E0.05235
G1 X111.701 Y63.753 E0.05224
G1 X112.336 Y62.965 E0.03174
G1 X113.517 Y61.789 E0.05224
G1 X114.851 Y60.786 E0.05235
G1 X115.722 Y60.269 E0.03174
G1 X117.243 Y59.579 E0.05235
G1 X118.908 Y59.090 E0.05441
G1 X120.596 Y58.845 E0.05350
G1 X135.635 Y57.984 E0.47231
G1 X141.746 Y58.155 E0.19167
G1 X142.222 Y58.225 E0.01510
G1 X142.830 Y58.489 E0.02078
G1 X143.334 Y58.925 E0.02089
G1 X143.683 Y59.492 E0.02089
G1 X143.845 Y60.139 E0.02089
G1 X143.855 Y144.882 E2.65708
G1 X143.782 Y145.443 E0.01771
G1 X143.582 Y145.940 E0.01680
G1 X143.270 Y146.371 E0.01669
G1 X139.023 Y150.572 E0.18731
G1 X138.492 Y150.951 E0.02044
G1 X137.874 Y151.156 E0.02044
G1 X111.496 Y151.189 E0.82705
G1 X110.940 Y151.116 E0.01760
G1 X110.347 Y150.850 E0.02037
G1 F8640
G1 X109.774 Y150.346 E-0.17619
G1 X109.436 Y149.726 E-0.16300
G1 X109.312 Y149.031 E-0.16300
G1 X109.312 Y147.915 E-0.25780
G1 E-0.04000 F2100.00000
G1 Z0.800 F10800.000
G1 X135.633 Y144.882
G1 Z0.200
G1 E0.80000 F2100.00000
G1 F1200
G1 X135.633 Y143.244 E0.05137
G1 F8640
G1 X135.633 Y144.882 E-0.37833
G1 E-0.42167 F2100.00000
G1 Z0.800 F10800.000
G1 X141.666 Y144.882
G1 Z0.200
G1 E0.80000 F2100.00000
G1 F1200
G1 X141.666 Y60.342 E2.65070
G1 X140.912 Y60.342 E0.02365
G1 X140.912 Y144.713 E2.64538
G1 X140.158 Y144.713 E0.02365
G1 X140.158 Y60.342 E2.64538
G1 X139.404 Y60.342 E0.02365
G1 X139.404 Y144.713 E2.64538
G1 X138.650 Y144.713 E0.02365
G1 X138.650 Y60.342 E2.64538
G1 X137.896 Y60.342 E0.02365
G1 X137.896 Y144.713 E2.64538
G1 X137.531 Y144.713 E0.01144
G1 X137.537 Y60.828 E2.63013
G1 X137.294 Y60.586 E0.01073
G1 X137.141 Y60.586 E0.00479
G1 X137.141 Y60.342 E0.00766
G1 X136.387 Y60.342 E0.02365
G1 X136.387 Y60.586 E0.00766
G1 X135.633 Y60.586 E0.02365
G1 X135.633 Y60.172 E0.01298
G1 F8640
G1 X135.633 Y60.586 E-0.09560
G1 X136.387 Y60.586 E-0.17414
G1 X136.387 Y60.342 E-0.05641
G1 X137.141 Y60.342 E-0.17414
G1 X137.141 Y60.586 E-0.05641
G1 X137.294 Y60.586 E-0.03531
G1 X137.537 Y60.828 E-0.07905
G1 X137.536 Y61.214 E-0.08894
G1 E-0.04000 F2100.00000
G1 Z0.800 F10800.000
G1 X136.536 Y61.587
G1 Z0.200
G1 E0.80000 F2100.00000
G1 F1200
G1 X136.525 Y142.548 E2.53847
G1 X136.347 Y142.465 E0.00618
G1 X136.052 Y142.413 E0.00937
G1 X115.815 Y142.413 E0.63454
G1 X115.526 Y142.458 E0.00917
G1 X115.220 Y142.612 E0.01072
G1 X114.978 Y142.853 E0.01070
G1 X114.845 Y143.110 E0.00909
G1 X113.077 Y148.413 E0.17527
G1 X112.087 Y148.413 E0.03103
G1 X112.087 Y71.010 E2.42690
G1 X112.111 Y70.329 E0.02140
G1 X112.183 Y69.660 E0.02107
G1 X112.303 Y68.999 E0.02107
G1 X112.469 Y68.348 E0.02107
G1 X112.681 Y67.711 E0.02107
G1 X112.938 Y67.090 E0.02107
G1 X113.239 Y66.489 E0.02107
G1 X113.582 Y65.911 E0.02107
G1 X113.965 Y65.359 E0.02107
G1 X114.386 Y64.836 E0.02107
G1 X114.844 Y64.344 E0.02107
G1 X115.336 Y63.886 E0.02107
G1 X115.859 Y63.465 E0.02107
G1 X116.411 Y63.082 E0.02107
G1 X116.989 Y62.739 E0.02107
G1 X117.590 Y62.438 E0.02107
G1 X118.211 Y62.181 E0.02107
G1 X118.848 Y61.969 E0.02107
G1 X119.499 Y61.803 E0.02107
G1 X120.160 Y61.683 E0.02107
G1 X120.829 Y61.611 E0.02107
G1 X121.510 Y61.587 E0.02140
G1 X136.476 Y61.587 E0.46924
G1 X136.913 Y61.210 F10800.000
G1 F1200
G1 X136.901 Y148.790 E2.74601
M73 Q0 S267
M73 P0 R265
G1 X136.710 Y148.790 E0.00600
G1 X136.710 Y143.481 E0.16647
G1 X136.671 Y143.259 E0.00706
G1 X136.548 Y143.044 E0.00775
G1 X136.366 Y142.890 E0.00749
G1 X136.232 Y142.827 E0.00463
G1 X136.020 Y142.790 E0.00677
G1 X115.844 Y142.790 E0.63259
G1 X115.643 Y142.822 E0.00639
G1 X115.444 Y142.922 E0.00699
G1 X115.286 Y143.079 E0.00698
G1 X115.193 Y143.257 E0.00631
G1 X113.349 Y148.790 E0.18286
G1 X111.710 Y148.790 E0.05138
G1 X111.710 Y71.004 E2.43893
G1 X111.735 Y70.302 E0.02203
G1 X111.810 Y69.607 E0.02191
G1 X111.934 Y68.919 E0.02191
G1 X112.107 Y68.242 E0.02191
G1 X112.327 Y67.579 E0.02191
G1 X112.595 Y66.933 E0.02191
G1 X112.908 Y66.308 E0.02191
G1 X113.264 Y65.707 E0.02191
G1 X113.663 Y65.133 E0.02191
G1 X114.101 Y64.589 E0.02191
G1 X114.578 Y64.078 E0.02191
G1 X115.089 Y63.601 E0.02191
G1 X115.633 Y63.163 E0.02191
G1 X116.207 Y62.764 E0.02191
G1 X116.808 Y62.408 E0.02191
G1 X117.433 Y62.095 E0.02191
G1 X118.079 Y61.827 E0.02191
G1 X118.742 Y61.607 E0.02191
G1 X119.419 Y61.434 E0.02191
G1 X120.107 Y61.310 E0.02191
G1 X120.802 Y61.235 E0.02191
G1 X121.504 Y61.210 E0.02203
G1 X136.853 Y61.210 E0.48127
G1 X136.713 Y61.556 F10800.000
G1 F8640
G1 X136.855 Y64.501 E-0.76000
G1 E-0.04000 F2100.00000
G1 Z0.800 F10800.000
G1 X136.423 Y62.466
G1 Z0.200
G1 E0.80000 F2100.00000
G1 F1200
G1 X135.827 Y61.870 E0.02656
G1 X135.291 Y61.870 E0.01688
G1 X136.253 Y62.832 E0.04286
G1 X136.253 Y63.368 E0.01687
G1 X134.755 Y61.870 E0.06672
G1 X134.220 Y61.870 E0.01688
G1 X136.253 Y63.903 E0.09059
G1 X136.253 Y64.439 E0.01687
G1 X133.684 Y61.870 E0.11445
G1 X133.148 Y61.870 E0.01688
G1 X136.253 Y64.975 E0.13831
G1 X136.253 Y65.510 E0.01687
G1 X132.612 Y61.870 E0.16217
G1 X132.077 Y61.870 E0.01688
G1 X136.253 Y66.046 E0.18604
G1 X136.253 Y66.582 E0.01687
G1 X131.541 Y61.870 E0.20990
G1 X131.005 Y61.870 E0.01688
G1 X136.253 Y67.117 E0.23376
G1 X136.253 Y67.653 E0.01687
G1 X130.469 Y61.870 E0.25762
G1 X129.934 Y61.870 E0.01688
G1 X136.252 Y68.189 E0.28148
G1 X136.252 Y68.724 E0.01687
G1 X129.398 Y61.870 E0.30535
G1 X128.862 Y61.870 E0.01688
G1 X136.252 Y69.260 E0.32921
G1 X136.252 Y69.796 E0.01687
G1 X128.326 Y61.870 E0.35307
G1 X127.791 Y61.870 E0.01688
G1 X136.252 Y70.331 E0.37693
G1 X136.252 Y70.867 E0.01687
G1 X127.255 Y61.870 E0.40080
G1 X126.719 Y61.870 E0.01688
G1 X136.252 Y71.403 E0.42466
G1 X136.252 Y71.938 E0.01687
G1 X126.183 Y61.870 E0.44852
G1 X125.648 Y61.870 E0.01688
G1 X136.252 Y72.474 E0.47238
G1 X136.252 Y73.010 E0.01687
G1 X125.112 Y61.870 E0.49624
G1 X124.576 Y61.870 E0.01688
G1 X136.252 Y73.545 E0.52011
G1 X136.252 Y74.081 E0.01687
G1 X124.040 Y61.870 E0.54397
G1 X123.505 Y61.870 E0.01688
G1 X136.252 Y74.617 E0.56783
G1 X136.252 Y75.152 E0.01687
G1 X122.969 Y61.870 E0.59169
G1 X122.433 Y61.870 E0.01688
G1 X136.251 Y75.688 E0.61556
G1 X136.251 Y76.224 E0.01687
G1 X121.898 Y61.870 E0.63942
G1 X121.367 Y61.875 E0.01671
G1 X136.251 Y76.759 E0.66304
G1 X136.251 Y77.295 E0.01687
G1 X120.850 Y61.894 E0.68608
G1 X120.366 Y61.946 E0.01533
G1 X136.251 Y77.831 E0.70763
G1 X136.251 Y78.366 E0.01687
G1 X119.902 Y62.017 E0.72830
G1 X119.455 Y62.106 E0.01436
G1 X136.251 Y78.902 E0.74822
G1 X136.251 Y79.438 E0.01687
G1 X119.028 Y62.215 E0.76723
G1 X118.620 Y62.343 E0.01346
G1 X136.251 Y79.973 E0.78539
G1 X136.251 Y80.509 E0.01687
G1 X118.223 Y62.482 E0.80306
G1 X117.845 Y62.639 E0.01292
G1 X136.251 Y81.045 E0.81993
G1 X136.251 Y81.580 E0.01687
G1 X117.480 Y62.809 E0.83619
G1 X117.123 Y62.988 E0.01257
G1 X136.251 Y82.116 E0.85208
G1 X136.251 Y82.652 E0.01687
G1 X116.787 Y63.188 E0.86706
G1 X116.457 Y63.394 E0.01224
G1 X136.250 Y83.187 E0.88173
G1 X136.250 Y83.723 E0.01687
G1 X116.141 Y63.614 E0.89581
G1 X115.837 Y63.846 E0.01204
G1 X136.250 Y84.259 E0.90933
G1 X136.250 Y84.794 E0.01687
G1 X115.541 Y64.085 E0.92254
G1 X115.262 Y64.342 E0.01194
G1 X136.250 Y85.330 E0.93496
G1 X136.250 Y85.866 E0.01687
G1 X114.989 Y64.604 E0.94713
G1 X114.730 Y64.882 E0.01194
G1 X136.250 Y86.401 E0.95863
G1 X136.250 Y86.937 E0.01687
G1 X114.482 Y65.169 E0.96971
G1 X114.243 Y65.465 E0.01200
G1 X136.250 Y87.473 E0.98036
G1 X136.250 Y88.008 E0.01687
G1 X114.019 Y65.777 E0.99032
G1 X113.801 Y66.095 E0.01214
G1 X136.250 Y88.544 E1.00001
G1 X136.250 Y89.080 E0.01687
G1 X113.602 Y66.432 E1.00890
G1 X113.411 Y66.777 E0.01242
G1 X136.250 Y89.615 E1.01739
G1 X136.250 Y90.151 E0.01687
G1 X113.232 Y67.134 E1.02534
G1 X113.071 Y67.508 E0.01284
G1 X136.249 Y90.687 E1.03253
M73 Q0 S266
M73 P0 R264
G1 X136.249 Y91.222 E0.01687
G1 X112.919 Y67.892 E1.03931
G1 X112.785 Y68.294 E0.01334
G1 X136.249 Y91.758 E1.04526
G1 X136.249 Y92.294 E0.01687
G1 X112.668 Y68.712 E1.05048
G1 X112.564 Y69.144 E0.01399
G1 X136.249 Y92.829 E1.05511
G1 X136.249 Y93.365 E0.01687
G1 X112.482 Y69.598 E1.05875
G1 X112.423 Y70.075 E0.01514
G1 X136.249 Y93.901 E1.06137
G1 X136.249 Y94.436 E0.01687
G1 X112.386 Y70.573 E1.06303
G1 X112.370 Y71.016 E0.01395
G1 X112.370 Y71.093 E0.00244
G1 X136.249 Y94.972 E1.06373
G1 X136.249 Y95.508 E0.01687
G1 X112.370 Y71.629 E1.06373
G1 X112.370 Y72.165 E0.01688
G1 X136.249 Y96.043 E1.06373
G1 X136.249 Y96.579 E0.01687
G1 X112.370 Y72.700 E1.06372
G1 X112.370 Y73.236 E0.01688
G1 X136.249 Y97.115 E1.06372
G1 X136.248 Y97.650 E0.01687
G1 X112.370 Y73.772 E1.06372
G1 X112.370 Y74.307 E0.01688
G1 X136.248 Y98.186 E1.06371
G1 X136.248 Y98.722 E0.01687
G1 X112.370 Y74.843 E1.06371
G1 X112.370 Y75.379 E0.01688
G1 X136.248 Y99.257 E1.06371
G1 X136.248 Y99.793 E0.01687
G1 X112.370 Y75.915 E1.06370
G1 X112.370 Y76.450 E0.01688
G1 X136.248 Y100.329 E1.06370
G1 X136.248 Y100.864 E0.01687
G1 X112.370 Y76.986 E1.06370
G1 X112.370 Y77.522 E0.01688
G1 X136.248 Y101.400 E1.06369
G1 X136.248 Y101.936 E0.01687
G1 X112.370 Y78.058 E1.06369
G1 X112.370 Y78.593 E0.01688
G1 X136.248 Y102.471 E1.06369
G1 X136.248 Y103.007 E0.01687
G1 X112.370 Y79.129 E1.06368
G1 X112.370 Y79.665 E0.01688
G1 X136.248 Y103.543 E1.06368
G1 X136.248 Y104.078 E0.01687
G1 X112.370 Y80.201 E1.06368
G1 X112.370 Y80.736 E0.01688
G1 X136.248 Y104.614 E1.06367
G1 X136.247 Y105.150 E0.01687
G1 X112.370 Y81.272 E1.06367
G1 X112.370 Y81.808 E0.01688
G1 X136.247 Y105.685 E1.06367
G1 X136.247 Y106.221 E0.01687
G1 X112.370 Y82.344 E1.06367
G1 X112.370 Y82.879 E0.01688
G1 X136.247 Y106.757 E1.06366
G1 X136.247 Y107.292 E0.01687
G1 X112.370 Y83.415 E1.06366
G1 X112.370 Y83.951 E0.01688
G1 X136.247 Y107.828 E1.06366
G1 X136.247 Y108.364 E0.01687
G1 X112.370 Y84.486 E1.06365
G1 X112.370 Y85.022 E0.01688
G1 X136.247 Y108.899 E1.06365
G1 X136.247 Y109.435 E0.01687
G1 X112.370 Y85.558 E1.06365
M73 Q1 S265
M73 P1 R263
G1 X112.370 Y86.094 E0.01688
G1 X136.247 Y109.971 E1.06364
G1 X136.247 Y110.506 E0.01687
G1 X112.370 Y86.629 E1.06364
G1 X112.370 Y87.165 E0.01688
G1 X136.247 Y111.042 E1.06364
G1 X136.247 Y111.578 E0.01687
G1 X112.370 Y87.701 E1.06363
G1 X112.370 Y88.237 E0.01688
G1 X136.247 Y112.113 E1.06363
G1 X136.246 Y112.649 E0.01687
G1 X112.370 Y88.772 E1.06363
G1 X112.370 Y89.308 E0.01688
G1 X136.246 Y113.185 E1.06362
G1 X136.246 Y113.720 E0.01687
G1 X112.370 Y89.844 E1.06362
G1 X112.370 Y90.380 E0.01688
G1 X136.246 Y114.256 E1.06362
G1 X136.246 Y114.792 E0.01687
G1 X112.370 Y90.915 E1.06361
G1 X112.370 Y91.451 E0.01688
G1 X136.246 Y115.327 E1.06361
G1 X136.246 Y115.863 E0.01687
G1 X112.370 Y91.987 E1.06361
G1 X112.370 Y92.523 E0.01688
G1 X136.246 Y116.399 E1.06360
G1 X136.246 Y116.934 E0.01687
G1 X112.370 Y93.058 E1.06360
G1 X112.370 Y93.594 E0.01688
G1 X136.246 Y117.470 E1.06360
G1 X136.246 Y118.006 E0.01687
G1 X112.370 Y94.130 E1.06359
G1 X112.370 Y94.666 E0.01688
G1 X136.246 Y118.541 E1.06359
G1 X136.246 Y119.077 E0.01687
G1 X112.370 Y95.201 E1.06359
G1 X112.370 Y95.737 E0.01688
G1 X136.246 Y119.613 E1.06359
G1 X136.245 Y120.148 E0.01687
G1 X112.370 Y96.273 E1.06358
G1 X112.370 Y96.808 E0.01688
G1 X136.245 Y120.684 E1.06358
G1 X136.245 Y121.220 E0.01687
G1 X112.370 Y97.344 E1.06358
G1 X112.370 Y97.880 E0.01688
G1 X136.245 Y121.755 E1.06357
G1 X136.245 Y122.291 E0.01687
G1 X112.370 Y98.416 E1.06357
G1 X112.370 Y98.951 E0.01688
G1 X136.245 Y122.827 E1.06357
G1 X136.245 Y123.362 E0.01687
G1 X112.370 Y99.487 E1.06356
G1 X112.370 Y100.023 E0.01688
G1 X136.245 Y123.898 E1.06356
G1 X136.245 Y124.434 E0.01687
G1 X112.370 Y100.559 E1.06356
G1 X112.370 Y101.094 E0.01688
G1 X136.245 Y124.969 E1.06355
G1 X136.245 Y125.505 E0.01687
G1 X112.370 Y101.630 E1.06355
G1 X112.370 Y102.166 E0.01688
G1 X136.245 Y126.041 E1.06355
G1 X136.245 Y126.576 E0.01687
G1 X112.370 Y102.702 E1.06354
G1 X112.370 Y103.237 E0.01688
G1 X136.245 Y127.112 E1.06354
G1 X136.244 Y127.648 E0.01687
G1 X112.370 Y103.773 E1.06354
G1 X112.370 Y104.309 E0.01688
G1 X136.244 Y128.183 E1.06353
M73 Q1 S264
M73 P1 R262
G1 X136.244 Y128.719 E0.01687
G1 X112.370 Y104.845 E1.06353
G1 X112.370 Y105.380 E0.01688
G1 X136.244 Y129.255 E1.06353
G1 X136.244 Y129.790 E0.01687
G1 X112.370 Y105.916 E1.06352
G1 X112.370 Y106.452 E0.01688
G1 X136.244 Y130.326 E1.06352
G1 X136.244 Y130.862 E0.01687
G1 X112.370 Y106.987 E1.06352
G1 X112.370 Y107.523 E0.01688
G1 X136.244 Y131.397 E1.06351
G1 X136.244 Y131.933 E0.01687
G1 X112.370 Y108.059 E1.06351
G1 X112.370 Y108.595 E0.01688
G1 X136.244 Y132.469 E1.06351
G1 X136.244 Y133.004 E0.01687
G1 X112.370 Y109.130 E1.06351
G1 X112.370 Y109.666 E0.01688
G1 X136.244 Y133.540 E1.06350
G1 X136.244 Y134.076 E0.01687
G1 X112.370 Y110.202 E1.06350
G1 X112.370 Y110.738 E0.01688
G1 X136.244 Y134.611 E1.06350
G1 X136.243 Y135.147 E0.01687
G1 X112.370 Y111.273 E1.06349
G1 X112.370 Y111.809 E0.01688
G1 X136.243 Y135.683 E1.06349
G1 X136.243 Y136.218 E0.01687
G1 X112.370 Y112.345 E1.06349
G1 X112.370 Y112.881 E0.01688
G1 X136.243 Y136.754 E1.06348
G1 X136.243 Y137.290 E0.01687
G1 X112.370 Y113.416 E1.06348
G1 X112.370 Y113.952 E0.01688
G1 X136.243 Y137.825 E1.06348
G1 X136.243 Y138.361 E0.01687
G1 X112.370 Y114.488 E1.06347
G1 X112.370 Y115.024 E0.01688
G1 X136.243 Y138.897 E1.06347
G1 X136.243 Y139.432 E0.01687
G1 X112.370 Y115.559 E1.06347
G1 X112.370 Y116.095 E0.01688
G1 X136.243 Y139.968 E1.06346
G1 X136.243 Y140.504 E0.01687
G1 X112.370 Y116.631 E1.06346
G1 X112.370 Y117.167 E0.01688
G1 X136.243 Y141.039 E1.06346
G1 X136.243 Y141.575 E0.01687
G1 X112.370 Y117.702 E1.06345
G1 X112.370 Y118.238 E0.01688
G1 X136.243 Y142.111 E1.06345
G1 X136.243 Y142.159 E0.00153
G1 X136.077 Y142.130 E0.00529
G1 X135.726 Y142.130 E0.01105
G1 X112.370 Y118.774 E1.04045
G1 X112.370 Y119.309 E0.01688
G1 X135.191 Y142.130 E1.01659
G1 X134.655 Y142.130 E0.01688
G1 X112.370 Y119.845 E0.99272
G1 X112.370 Y120.381 E0.01688
G1 X134.119 Y142.130 E0.96886
G1 X133.583 Y142.130 E0.01688
G1 X112.370 Y120.917 E0.94499
G1 X112.370 Y121.452 E0.01688
G1 X133.048 Y142.130 E0.92113
G1 X132.512 Y142.130 E0.01688
G1 X112.370 Y121.988 E0.89726
G1 X112.370 Y122.524 E0.01688
G1 X131.976 Y142.130 E0.87340
G1 X131.440 Y142.130 E0.01688
G1 X112.370 Y123.060 E0.84953
G1 X112.370 Y123.595 E0.01688
G1 X130.905 Y142.130 E0.82567
M73 Q1 S263
M73 P1 R261
G1 X130.369 Y142.130 E0.01688
G1 X112.370 Y124.131 E0.80180
G1 X112.370 Y124.667 E0.01688
G1 X129.833 Y142.130 E0.77793
